source/img/instagram.svg

<svg enable-background="new 0 0 23 23" viewBox="0 0 23 23" xmlns="http://www.w3.org/2000/svg"><g fill="#231f20"><path d="m17 1.5c2.5 0 4.5 2 4.5 4.5v11c0 2.5-2 4.5-4.5 4.5h-11c-2.5 0-4.5-2-4.5-4.5v-11c0-2.5 2-4.5 4.5-4.5zm0-1.5h-11c-3.3 0-6 2.7-6 6v11c0 3.3 2.7 6 6 6h11c3.3 0 6-2.7 6-6v-11c0-3.3-2.7-6-6-6z"/><path d="m11.5 7.1c2.4 0 4.4 2 4.4 4.4s-2 4.4-4.4 4.4-4.4-2-4.4-4.4 2-4.4 4.4-4.4m0-1.5c-3.3 0-5.9 2.7-5.9 5.9s2.7 5.9 5.9 5.9 5.9-2.7 5.9-5.9-2.6-5.9-5.9-5.9z"/><circle cx="17.6" cy="5.4" r="1.3"/></g></svg>

<?xml version="1.0" encoding="utf-8"?>
<!-- Generator: Adobe Illustrator 21.0.0, SVG Export Plug-In . SVG Version: 6.00 Build 0)  -->
<svg version="1.1" id="Layer_1" xmlns="http://www.w3.org/2000/svg" xmlns:xlink="http://www.w3.org/1999/xlink" x="0px" y="0px"
	 viewBox="0 0 23 23" style="enable-background:new 0 0 23 23;" xml:space="preserve">
<style type="text/css">
	.st0{fill:#231F20;}
</style>
<path class="st0" d="M17,1.5c2.5,0,4.5,2,4.5,4.5v11c0,2.5-2,4.5-4.5,4.5H6c-2.5,0-4.5-2-4.5-4.5V6c0-2.5,2-4.5,4.5-4.5L17,1.5
	 M17,0H6C2.7,0,0,2.7,0,6v11c0,3.3,2.7,6,6,6h11c3.3,0,6-2.7,6-6V6C23,2.7,20.3,0,17,0L17,0z"/>
<path class="st0" d="M11.5,7.1c2.4,0,4.4,2,4.4,4.4c0,2.4-2,4.4-4.4,4.4c-2.4,0-4.4-2-4.4-4.4C7.1,9.1,9.1,7.1,11.5,7.1 M11.5,5.6
	c-3.3,0-5.9,2.7-5.9,5.9s2.7,5.9,5.9,5.9s5.9-2.7,5.9-5.9S14.8,5.6,11.5,5.6L11.5,5.6z"/>
<circle class="st0" cx="17.6" cy="5.4" r="1.3"/>
</svg>
